X:134 
T:Miss Jenny's*  (polka)
F:file ID: cre.5/134miss_j
B:CRE5.098 (gan ainm)
M:2/4
L:1/8
Q:120
R:polka
K:G % source key D
B|dB AB/A/|GB DE/F/|GA BA/G/|AG AB/c/|
dB AB/A/|GB DE/F/|GB AB/A/|GFG:|
B|:cB c>d|ed e/f/g/e/|dB B>d|ed e/f/g/e/|
dB AB/A/|GB DE/F/|GB AB/A/|1 GF G:|2 GFG2-|G4||


%%%

